!!!COM: Ernest Chausson
!!!CNT: Francais
!!!TXO: Francais
!!!OTL: Le temps des lilas
!!!LYR: Maurice Bouchor
!!!ENC: Jacob Pegg
!!!YOR: 20 Songs for Voice and Piano, International Music Company, New York City, January, 1952
!!!ODT: 1886/
!!NB: Vocal melody and text only encoded.
**kern	**silbe
*clef G2	*
*k[b-e-a-d-g-]	*
*M3/4	*
=6	=6
4r	.
{8g-	{Le
8f	temps
8e-	des
8g-	li-
=7	=7
[2.f	-las
=8	=8
4f]	|
8e-	et
8d-	le
8c	temps
8B-	des
=9	=9
2d-	ro-
[4c	-ses
=10	=10
8c]}	|}
8r	.
{8g-	{Ne
8f	re-
8e-	-vien-
8g-	-dra
=11	=11
2f	plus
8f	a\
8f	ce
=12	=12
8an	prin-
8an	-temps~
[2f	~ci;
=13	=13
4f]}	|}
4r	.
4r	.
=14	=14
4r	.
{8gn	{Le
8f	temps
8gn	des
8b-	li-
=15	=15
2a-	-las
8gn	et
8gn	le
=16	=16
8.g-	temps
16d-	des
4.g-	ro-
8g-	-ses
=17	=17
8f	Est
8c	pas-
[2f	-se/
=18	=18
4f]}	|}
4r	.
{4c	{Le
=19	=19
4e-	temps
8d-	des
8c	oeil-
8d-	-lets
8e-	aus-
=20	=20
[2dn	-si.
8dn]}	|}
8r	.
=21	=21
2.r	.
=22	=22
{4f#	{Le
4an	vent
8f#	a
8dn	chan-
=23	=23
2fn	ge/,
4b-	les
=24	=24
2cc-	cieux
8cc-	sont
8cc-	mo-
=25	=25
4cc-	-ro-
4b-}	-ses,}
{8b-	{et
8b-	nous
=26	=26
8dd-	n'ir-
8dd-	-ons
4cc	plus
4b-	cou-
=27	=27
2dd-}	-rir,}
{8cc	{et
8b-	cueil-
=28	=28
4dd-	-lir
8cc-	les
8b-	li-
8a-	-las
8cc-	en
=29	=29
4b-	fleur
8a-	et
8g-	les
8f	bel-
8e-	-les
=30	=30
2g-	ro-
[4f	-ses
=31	=31
8f]}	|}
8r	.
4r	.
{8f	{Le
8f	prin-
=32	=32
8a-	-tenps
8a-	est
4f	triste
8f	et
8f	ne
=33	=33
8an	peut
8an	fleu-
[2f	-rir.
=34	=34
4f_	|
8f]}	|}
8r	.
4r	.
=39	=39
4r	.
{[4a-	{Oh!
8a-]	|
8dn	joy-
=40	=40
(8.dn	-eux
8.dn	et
8.e-	doux
8.f)	prin-
=41	=41
2gn	-temps
8dn	de
8c	l'an-
=42	=42
[4dn	ne/-
8dn]}	e,}
8r	.
8r	.
{8dn	{Qui
=43	=43
4.e-	vins,
4e-	l'an
8e-	pas-
=44	=44
4dn	-se/,
8dn	nous
8dn	en-
8c	-so-
8B-	-leil-
=45	=45
[2.b-	-ler,
=46	=46
2.b-]}	|}
=47	=47
{8b-	{No-
8b-	-tre
4g-	fleur
4d-	d'a-
=48	=48
4dn	-mour
8dn	est
8en	se
8f#	bien
8an	fa-
=49	=49
2ddn	-ne/-,
[4cc	-e,
=50	=50
2cc_	|
8cc]}	|}
8r	.
=51	=51
*M4/4	*
{([2een	{Las-
4een]	|
8ddn)	|
8r	.
=52	=52
*M3/4	*
4ddn	-que
4cc	ton
4b-	bai-
=53	=53
2b-	-ser
4g-	ne
=54	=54
[2.g-	peut
=55	=55
4g-]	|
4g-	l'e/-
4f	-veil-
=56	=56
[2f	-ler!
8f]}	|}
8r	.
=57	=57
2.r	.
=58	=58
2.r	.
=59	=59
8r	.
{8an	{Et
4an	toi,
12r	.
12an	que
12an	fais~
=60	=60
2b-	~tu?
4r	.
=61	=61
4r	.
8e--	pas
8e--	de
8d-	fleurs
8c-	e/-
=62	=62
2c-	-clo-
8c-}	-ses,}
8r	.
=63	=63
4r	.
{8g-	{Point
8g-	de
8g-	gai
8g-	so-
=64	=64
2gn	-leil
8gn	ni
8gn	d'om-
=65	=65
2dd-	-bra-
4g-	-ges
=66	=66
[2.an	frais;
=67	=67
4an]}	|}
4r	.
4r	.
=68	=68
2.r	.
=69	=69
*M4/4	*
2r	.
{8g-	{Le
8f	temps
8e-	des
8g-	li-
=70	=70
*M3/4	*
2.f	-las
=71	=71
8f	et
8f	le
4.b-	temps
8dd-	des
=72	=72
2dd-	ro-
[4d-	-ses
=73	=73
8d-]}	|}
8r	.
{8b-	{A-
8b-	-vec
8a-	notre
8g-	a-
=74	=74
2g-	-mour
4g-	est
=75	=75
2.f	mort
=76	=76
[2d-	a\
8d-]	|
8d-	ja-
=77	=77
[2.d-	-mais
=78	=78
4d-]}	|}
4r	.
4r	.
*-	*-
